!!!OTL: Graf und Nonne (Die Nonne) Ich stand auf hohem Berge,
!!!ARE: Europa, Mitteleuropa, Schweiz, Basel - Land
!!!YOR: 8, S. 78
!!    1931 aufgezeichnet
!!!SCT: Q0155Y
!!!YEM: Copyright 1995, estate of Helmut Schaffrath.
**kern
*ICvox
*Ivox
*M4/4
*k[b-]
*F:
{4c
=1
4f
4cc
8cc
8a
8a
8cc
=2
2a
4a}
{4c
=3
4f
4f
8b-
8dd
8dd
8ff
=4
2ff
4r}
{4c
=5
4f
4cc
8cc
8a
8a
8cc
=6
2a
4a}
{4cc
=7
4a
4f
4g
4e
=8
2f
4r}
{4cc
=9
4a
4f
4g
4e
=10
2f
4r}
==
!!!AGN: Ballade, Standesunterschied, vergebliche Werbung, Liebe, Klage
!!!ONB: ESAC (Essen Associative Code) Database: BALLADE
!!!AMT: simple quadruple
!!!AIN: vox
!!!EED: Helmut Schaffrath
!!!EEV: 1.0
*-
